X:329
%%etbk:tnset id:99,pos:6,rep:3x,ant:
%%etbk:wsite http://www.thesession.org/tunes/display/61
%%etbk:pldat 2016-06-20T18:34,2016-05-05T14:20,2016-05-03T15:30,2016-03-11T16:25,2016-03-09T17:00,2016-03-08T17:27,2016-03-07T18:33,2016-02-10T16:36,2015-11-03T17:09,2015-10-28T16:59,2015-10-26T19:04,2015-10-22T18:34,2015-10-19T18:21,2015-10-06T16:34,2015-06-24T19:06,2015-03-13T18:27,2015-03-10T16:50,2015-03-06T16:49,2015-02-18T17:46,2015-02-14T12:39,2015-01-28T17:29,2014-11-06T18:28,2014-11-04T16:16,2014-11-02T15:40,2014-11-01T13:52,2014-08-21T19:41,2014-08-18T19:29,2014-06-25T16:14,2014-06-10T18:19,2014-03-06T18:15,2014-03-03T18:35,2014-02-27T18:04,2014-02-23T11:35,2013-10-30T15:51,2013-10-28T19:12,2013-10-26T16:25,2013-10-15T18:20,2013-10-11T18:39,2013-10-08T16:16
T: Langstrom's Pony
Z: Piano Box Version by Martin Fleischmann
H: Created 2013-02-19 /  Last Modified 2013-02-19
M: 6/8
L: 1/8
R: jig
K: Amix
|: !3!fe!1!d "A"!3!c!1!A!2!A | !1!E!2!A!1!A !3!c!1!AA | !3!fe!1!d !3!c!1!AA | "G"!2!B!1!GB !4!d!3!c!1!d |
!3!fe!1!d "A"!3!c!1!A!2!A | !1!E!2!A!1!A !3!c!1!AA | "G"!3!f!5!af !4!gfe | !1!d!2!B!1!G !2!Bcd:|
|: "A"!2!c!4!ee !1!d!3!ff | !2!c!4!ee !4!e!2!c!1!A | !2!c!4!e!2!e !4!gfe | "G"!1!d!2!B!1!G !2!Bc!4!d |
"A"!2!c!4!ee !1!d!3!ff | !2!c!4!e!2!e !2!efg | "G"!3!f!5!af !4!gfe | !1!d!2!B!1!G !2!Bc!4!d:|
|: "A"!1!A!2!c!3!e !5!a2a | !3!e!2!c!1!A ec!1!A | "G"!1!G !2!(3B!3!c!1!d !4!g2g | !1!d!2!B!1!G !2!Bc!4!d |
"A"!3!f!5!af !4!g2e | !3!fed !4!e!2!c!1!A| !3!(3fg!5!a f !4!gfe | "G"!1!d!2!B!1!G !2!Bc!4!d:|
|: "A"!2!A!1!E!2!A !1!A !3!(3A!2!A!1!A | !3!c!1!Ac !5!e!3!c!1!B | !2!A!1!E!2!A !1!AB!3!=c | "G"!2!B!1!G!2!B !4!d!3!c!1!B |
"A"!2!A!1!E!2!A !1!A !3!(3A!2!A!1!A | !3!c!1!A!3!c !1!e!3!f!4!g | "G"!3!f!5!af !4!gfe | !1!d!2!B!1!G !2!Bc!4!d:|


